X:1
T:Title
%%score 1 { 2 | 3 }
L:1/8
Q:1/4=84
M:4/4
K:Ab
V:1 treble nm="Bright Piano"
V:2 bass nm="Bright Piano"
V:3 bass 
V:1
 z4 z ECE | [EA]3 [EA] [FA][CA] [Ec]>[FB] | [DB]2 [CA]2 z [EA][DA][DF] | E[CA][Ec][FA] [Fd]3 [DG] | %4
 [CA]4 z [Ee][Ed][Ec] | [Ec]3 [EB] [EA][EA][Ed][Ec] | [Ec]2 [EB]2 [Ee]2 [Ed][Ec] | %7
 [Ec]3 [EB] [EA][CA][DF][FB] | [EA]2 [EG]2- [EG]E[=DF][EG] | [EA]3 [EA] [C_G]>[DG] [EG]>[CG] | %10
 [DF]4 z [Fd][Fc][FB] | [Ee]4 z [Ec][EA]E | [Dd]3 [DG] [CA]4 |] %13
V:2
 z4 z E,C,E, | C3 C CC A,>A, | G,2 A,2 z CDA, | A,A,A,C B,3 B, | A,4 z A,B,A, | A,3 G, A,A,G,A, | %6
 A,2 G,2 A,2 G,A, | A,3 G, A,A,A,D | C2 B,2- B,G,A,B, | A,3 A, A,>A, A,>A, | A,4 z B,=A,B, | %11
 C4 z A,CA, | G,3 B, A,4 |] %13
V:3
 z8 | A,,3 A, F,E, C,>D, | E,2 F,2 z _G,F,D, | C,A,, z F, B,,3 E, | A,,4 z C,G,,A,, | %5
 E,3 D, C,C,B,,A,, | E,2 E,2 C,2 B,,A,, | E,3 D, C,A,,D,B,, | E,2 E,2- E,E,E,D, | %9
 C,3 C, A,,>B,, C,>A,, | D,4 z B,,C,D, | E,4 z E,E,C, | B,,3 E, A,,4 |] %13

